X:1
T:Title
%%score { 1 | ( 2 3 ) }
L:1/8
M:3/4
K:F
V:1 treble nm="Grand Piano"
V:2 bass 
V:3 bass 
V:1
 z2 z2[Q:1/4=90] Ac | [Ec]2 [EB]2 [EG][GB] | [GB]2 A2 FA | [EA]3 G DE |[M:2/4] F2 C2 | %5
[M:1/4] [CFA][_EAc] |[M:3/4] [DAc]2 [DGB]2 [CEG][CGB] | [CGB]2 [CFA]2 [CF][CFA] | %8
 [CDA]3 [B,DG] BE |[M:2/4] F4 |[M:1/4] [CF][CE] |[M:3/4] [CE]2 [B,D]2 [DF]D | D2 C2 AA | %13
 [Fd]3 [FA] [FA][F=B] |[M:2/4] [Ec]4 |[M:1/4] [Ec][Ge] |[M:3/4] [Ge]3 [Fd] [EG][Ed] | d2 c2 Ac | %18
 c>B A3 G[Q:1/4=87][Q:1/4=84][Q:1/4=82][Q:1/4=79][Q:1/4=76][Q:1/4=73][Q:1/4=70] |[M:2/4] F4 |] %20
V:2
 z2 z2 [F,CF][F,A,F] | [C,A,]2 [C,G,]2 [C,C][C,C] | [F,C]2 [F,CF]2 [A,C][F,CF] | %3
 [C,B,]3 [C,B,C] [C,B,C][C,B,C] |[M:2/4] C2 z2 |[M:1/4] F,^F, |[M:3/4] G,2 G,2 C,C, | %7
 F,2 F,2 A,F, | B,,3 B,, [C,E,C][C,B,C] |[M:2/4] [F,A,C]4 |[M:1/4] [A,,F,][A,,G,] | %11
[M:3/4] [B,,F,]2 [B,,F,]2 [B,,F,][B,,F,B,] | [F,B,]2 [F,A,]2 [F,C][E,^CE] | %13
 [D,A,D]3 [D,D] [D,D][D,G,] |[M:2/4] [C,G,]4 |[M:1/4] [C,G,][C,B,] | %16
[M:3/4] [C,B,]3 [C,B,] [C,B,][C,B,] | [F,B,F]2 [F,A,F]2 [F,CF][A,_EF] | %18
 [B,DF]>[B,DF] [CF]3[K:bass] [C,B,C] |[M:2/4] [F,A,C]4 |] %20
V:3
 x6 | x6 | x6 | x6 |[M:2/4] [F,A,]4 |[M:1/4] x2 |[M:3/4] x6 | x6 | x6 |[M:2/4] x4 |[M:1/4] x2 | %11
[M:3/4] x6 | x6 | x6 |[M:2/4] x4 |[M:1/4] x2 |[M:3/4] x6 | x6 | x5[K:bass] x |[M:2/4] x4 |] %20

